!!!OTL: 739b. Das Liebchen im Grabe.
!!!ARE: Europa, Mitteleuropa, Deutschland, Pommern, Alt - Storken
!!!SCT: E0739D
!!!TXL: @@DE
!!!YEM: Copyright 1995, estate of Helmut Schaffrath.
**kern	**text
*ICvox	*
*M4/4	*
*met(c)	*
*k[b-]	*
*F:	*
!LO:TX:a:t=Ruhig.	!
!LO:TX:a:t=Aus Pommern (Alt-Storken) Feſtgabe an Erk 1876.	!
{8fL	Jch
8gJ	.
=1	=1
4a	ha-
8f	-be
8f	den
4f	Frühling
8b-	.
8a	ge-
=2	=2
(4.a	-ſeh-
8g)	.
4f}	-en,
{8eL	ich
8fJ	.
=3	=3
4g	ha-
8cc	-be
8cc	die
4dd	Blu-
8cc	-men
8b-	be-
=4	=4
2a	-grüßt,
4r}	.
{8f	der
8a	.
=5	=5
4cc	Nach-
8cc	-ti-
8cc	-gall
4dd	Stim-
8dd	-me
8ee	be-
=6	=6
(4.ff	-lau-
8ee)	.
4dd}	-ſchet,
{4cc	ein
=7	=7
4dd	himm-
8b-	-li-
8g	-ſches
4cc	Mäd-
8b-	-chen
8g	ge-
=8	=8
2f	-küßt.
4r}	.
==	==
!!!AGN: Liebes - Lied, Leid, Klage, Tod
!!!ONB: ESAC (Essen Associative Code) Database: ERK2
!!!AMT: simple quadruple
!!!AIN: vox
!!!EED: Helmut Schaffrath
!!!EEV: 1.0
!!!GTL: Liebeslieder [Neuere (aus dem 18. bis 19. Jahrh.) - Liebesleid] 678-740
!!!URL-scan: https://rosdok.uni-rostock.de/mcrviewer/recordIdentifier/rosdok_ppn745177662/iview2/phys_0544.iview2?x=193.8995864193107&y=1874.7074167216197&scale=0.7029437510502773&rotation=0&layout=singlePageLayout
!!!ENC: Anna Maria Matuszewska
!!!EEV: 2024/12/16
*-	*-
